src/assets/img/svg/logo-opencart.svg

<svg xmlns="http://www.w3.org/2000/svg" width="166" height="60" viewBox="0 0 166 60">
    <defs>
        <linearGradient id="prefix__a" x1="50%" x2="50%" y1="79.104%" y2="0%">
            <stop offset="0%" stop-color="#04B6F0"/>
            <stop offset="100%" stop-color="#3ECAF0"/>
        </linearGradient>
    </defs>
    <path fill="url(#prefix__a)" d="M16.095 16.538c0 2.416-.719 4.451-2.162 6.099-1.506 1.726-3.463 2.592-5.859 2.592-2.402 0-4.353-.866-5.859-2.592C.771 20.989.047 18.954.047 16.538c0-2.422.724-4.457 2.168-6.098 1.523-1.71 3.48-2.565 5.859-2.565 2.396 0 4.353.855 5.859 2.565 1.443 1.641 2.162 3.676 2.162 6.098zm-4.77 0c0-1.094-.262-2.018-.787-2.764-.587-.85-1.409-1.271-2.464-1.271-1.056 0-1.877.422-2.465 1.27-.53.747-.793 1.671-.793 2.765 0 1.089.263 2.023.793 2.793.588.848 1.41 1.27 2.465 1.27s1.877-.422 2.464-1.27c.525-.77.787-1.704.787-2.793zm22.017 0c0 2.257-.65 4.229-1.957 5.916-1.398 1.846-3.2 2.775-5.392 2.775-1.546 0-2.858-.45-3.93-1.339 0 .205.023.7.068 1.494.046.797.068 1.447.068 1.96 0 2.833-.844 4.246-2.532 4.246-.69 0-1.255-.245-1.706-.73-.445-.49-.668-1.078-.668-1.772V10.662c0-.672.229-1.254.685-1.744.456-.484 1.021-.729 1.694-.729 1.016 0 1.757.506 2.225 1.516.999-1.22 2.362-1.83 4.09-1.83 2.197 0 3.994.912 5.398 2.742 1.3 1.693 1.957 3.665 1.957 5.921zm-4.77 0c0-1.094-.268-2.018-.792-2.764-.589-.85-1.41-1.271-2.465-1.271-1.056 0-1.877.422-2.465 1.27-.525.747-.787 1.671-.787 2.765 0 1.089.262 2.023.787 2.793.588.848 1.41 1.27 2.465 1.27s1.876-.422 2.465-1.27c.524-.77.792-1.704.792-2.793zm22.125-.512c0 .797-.189 1.344-.566 1.652-.376.302-.963.456-1.756.456h-8.61c0 .912.428 1.613 1.284 2.102.69.383 1.535.577 2.533.577.777 0 1.706-.257 2.796-.764 1.09-.513 1.791-.764 2.094-.764.553 0 1.02.2 1.409.61.382.405.576.895.576 1.46 0 1.304-.975 2.32-2.927 3.048-1.489.547-3 .826-4.546.826-2.488 0-4.496-.826-6.03-2.472-1.536-1.648-2.306-3.717-2.306-6.219 0-2.383.799-4.417 2.396-6.115 1.592-1.699 3.572-2.548 5.934-2.548 2.196 0 4.033.804 5.505 2.411 1.472 1.608 2.214 3.522 2.214 5.74zm-4.77-1.198c-.023-.73-.36-1.39-1.01-1.99-.65-.597-1.34-.893-2.07-.893-.754 0-1.456.296-2.106.894-.65.599-.976 1.26-.976 1.99h6.162zm20.795 7.585c0 .696-.222 1.283-.667 1.773-.45.485-1.016.73-1.706.73-1.666 0-2.5-1.322-2.5-3.96 0-.508.035-1.306.104-2.406.074-1.094.108-1.898.108-2.405 0-2.799-.907-4.2-2.715-4.2-1.81 0-2.71 1.401-2.71 4.2 0 .507.028 1.31.08 2.405.057 1.1.085 1.898.085 2.405 0 2.639-.822 3.961-2.464 3.961-.691 0-1.255-.245-1.7-.73-.451-.49-.674-1.077-.674-1.773V10.657c0-.69.223-1.277.673-1.75.446-.479 1.016-.718 1.706-.718 1.141 0 1.934.506 2.379 1.516.77-1.22 2.134-1.83 4.085-1.83 1.808 0 3.246.479 4.302 1.43 1.078 1.021 1.614 2.423 1.614 4.207v8.901zm14.964-.506c0 1.077-.7 1.931-2.104 2.56-1.112.506-2.321.766-3.543.762-2.403 0-4.353-.866-5.86-2.592-1.443-1.648-2.168-3.683-2.168-6.099 0-2.422.737-4.468 2.214-6.144 1.477-1.68 3.411-2.519 5.814-2.519 1.386 0 2.578.205 3.572.61 1.385.548 2.075 1.402 2.075 2.565 0 .587-.182 1.105-.547 1.556-.365.444-.834.672-1.403.672-.389 0-.948-.13-1.678-.387-.73-.263-1.311-.388-1.74-.388-1.135 0-2.02.405-2.653 1.214-.587.73-.884 1.664-.884 2.821 0 1.089.262 2.012.794 2.759.586.872 1.414 1.305 2.47 1.305.468 0 1.106-.137 1.922-.417.816-.273 1.404-.415 1.769-.415.53 0 .986.227 1.375.672.382.45.575.934.575 1.465zm17.338.506c0 .696-.222 1.283-.667 1.773-.45.485-1.02.73-1.712.73-1.038 0-1.78-.507-2.225-1.516-.998 1.22-2.362 1.83-4.09 1.83-2.213 0-4.027-.93-5.432-2.776-1.277-1.687-1.921-3.659-1.921-5.916 0-2.256.644-4.228 1.921-5.921 1.427-1.83 3.235-2.742 5.432-2.742 1.728 0 3.092.61 4.09 1.83.445-1.01 1.187-1.516 2.225-1.516.674 0 1.239.245 1.695.73.456.49.684 1.065.684 1.738v11.756zm-4.77-5.875c0-1.094-.261-2.018-.786-2.764-.61-.85-1.433-1.271-2.465-1.271-1.055 0-1.876.422-2.465 1.27-.53.747-.792 1.671-.792 2.765 0 1.089.256 2.023.763 2.793.606.848 1.439 1.27 2.494 1.27 1.055 0 1.877-.422 2.465-1.27.525-.77.787-1.704.787-2.793zm16.94-6.195c0 1.02-.497 1.72-1.49 2.102-.918.309-1.831.623-2.744.947-.999.57-1.495 1.63-1.495 3.17v5.851c0 .696-.229 1.283-.672 1.773-.452.485-1.022.73-1.712.73-.696 0-1.267-.245-1.711-.73-.452-.49-.674-1.077-.674-1.773V10.657c0-.69.222-1.277.667-1.75.45-.479 1.022-.718 1.712-.718 1.14 0 1.933.506 2.38 1.516 1.02-1.22 2.116-1.83 3.297-1.83.673 0 1.25.245 1.728.73.473.49.714 1.071.714 1.738zm12.442.217c0 1.06-.416 1.726-1.242 2.012-.407.142-1.258.216-2.552.216v9.625c0 .696-.228 1.283-.672 1.773-.452.485-1.022.73-1.712.73-.673 0-1.244-.245-1.701-.73-.456-.49-.684-1.077-.684-1.773v-9.625c-.982 0-1.694-.125-2.145-.37-.615-.342-.92-.963-.92-1.858 0-.895.314-1.505.947-1.83.429-.24 1.136-.364 2.118-.364v-2.04c0-2.4.792-3.597 2.385-3.597 1.585 0 2.384 1.197 2.384 3.596v2.04c1.294 0 2.145.075 2.552.217.826.285 1.242.946 1.242 1.978zm38.317-2.894c-.013-1.463-2.719-2.127-9.724-2.127-16.435 0-20.605-.702-25.067-5.392 1.877 2.816 2.904 8.099 20.276 7.836 18.125-.279 7.068 4.669 3.85 10.259 5.803-5.174 10.648-8.583 10.665-10.555v-.021zm-23.096 15.022c0 1.36-1.12 2.478-2.482 2.478-1.375 0-2.487-1.11-2.487-2.478v-.002c0-1.362 1.122-2.483 2.486-2.483h.001c1.371 0 2.482 1.11 2.482 2.485zm11.319 0c0 1.36-1.12 2.478-2.482 2.478-1.374 0-2.486-1.11-2.486-2.478v-.002c0-1.362 1.121-2.483 2.485-2.483h.001c1.37 0 2.482 1.11 2.482 2.485z" transform="translate(2 14)"/>
</svg>

<?xml version="1.0" encoding="UTF-8"?>
<svg width="162px" height="32px" viewBox="0 0 162 32" version="1.1" xmlns="http://www.w3.org/2000/svg" xmlns:xlink="http://www.w3.org/1999/xlink">
    <!-- Generator: Sketch 51.2 (57519) - http://www.bohemiancoding.com/sketch -->
    <title>Shape</title>
    <desc>Created with Sketch.</desc>
    <defs></defs>
    <g id="Page-1" stroke="none" stroke-width="1" fill="none" fill-rule="evenodd">
        <g id="logo-opencart" fill="#04B6F0" fill-rule="nonzero">
            <path d="M16.095,16.538 C16.095,18.954 15.376,20.989 13.933,22.637 C12.427,24.363 10.47,25.229 8.074,25.229 C5.672,25.229 3.721,24.363 2.215,22.637 C0.771,20.989 0.047,18.954 0.047,16.538 C0.047,14.116 0.771,12.081 2.215,10.44 C3.738,8.73 5.695,7.875 8.074,7.875 C10.47,7.875 12.427,8.73 13.933,10.44 C15.376,12.081 16.095,14.116 16.095,16.538 Z M11.325,16.538 C11.325,15.444 11.063,14.52 10.538,13.774 C9.951,12.924 9.129,12.503 8.074,12.503 C7.018,12.503 6.197,12.925 5.609,13.773 C5.079,14.52 4.816,15.444 4.816,16.538 C4.816,17.627 5.079,18.561 5.609,19.331 C6.197,20.179 7.019,20.601 8.074,20.601 C9.129,20.601 9.951,20.179 10.538,19.331 C11.063,18.561 11.325,17.627 11.325,16.538 Z M33.342,16.538 C33.342,18.795 32.692,20.767 31.385,22.454 C29.987,24.3 28.185,25.229 25.993,25.229 C24.447,25.229 23.135,24.779 22.063,23.89 C22.063,24.095 22.086,24.59 22.131,25.384 C22.177,26.181 22.199,26.831 22.199,27.344 C22.199,30.177 21.355,31.59 19.667,31.59 C18.977,31.59 18.412,31.345 17.961,30.86 C17.516,30.37 17.293,29.782 17.293,29.088 L17.293,10.662 C17.293,9.99 17.522,9.408 17.978,8.918 C18.434,8.434 18.999,8.189 19.672,8.189 C20.688,8.189 21.429,8.695 21.897,9.705 C22.896,8.485 24.259,7.875 25.987,7.875 C28.184,7.875 29.981,8.787 31.385,10.617 C32.685,12.31 33.342,14.282 33.342,16.538 Z M28.572,16.538 C28.572,15.444 28.304,14.52 27.78,13.774 C27.191,12.924 26.37,12.503 25.315,12.503 C24.259,12.503 23.438,12.925 22.85,13.773 C22.325,14.52 22.063,15.444 22.063,16.538 C22.063,17.627 22.325,18.561 22.85,19.331 C23.438,20.179 24.26,20.601 25.315,20.601 C26.37,20.601 27.191,20.179 27.78,19.331 C28.304,18.561 28.572,17.627 28.572,16.538 Z M50.697,16.026 C50.697,16.823 50.508,17.37 50.131,17.678 C49.755,17.98 49.168,18.134 48.375,18.134 L39.765,18.134 C39.765,19.046 40.193,19.747 41.049,20.236 C41.739,20.619 42.584,20.813 43.582,20.813 C44.359,20.813 45.288,20.556 46.378,20.049 C47.468,19.536 48.169,19.285 48.472,19.285 C49.025,19.285 49.492,19.485 49.881,19.895 C50.263,20.3 50.457,20.79 50.457,21.355 C50.457,22.659 49.482,23.675 47.53,24.403 C46.041,24.95 44.53,25.229 42.984,25.229 C40.496,25.229 38.488,24.403 36.954,22.757 C35.418,21.109 34.648,19.04 34.648,16.538 C34.648,14.155 35.447,12.121 37.044,10.423 C38.636,8.724 40.616,7.875 42.978,7.875 C45.174,7.875 47.011,8.679 48.483,10.286 C49.955,11.894 50.697,13.808 50.697,16.026 Z M45.927,14.828 C45.904,14.098 45.567,13.438 44.917,12.838 C44.267,12.241 43.577,11.945 42.847,11.945 C42.093,11.945 41.391,12.241 40.741,12.839 C40.091,13.438 39.765,14.099 39.765,14.829 L45.927,14.829 L45.927,14.828 Z M66.722,22.413 C66.722,23.109 66.5,23.696 66.055,24.186 C65.605,24.671 65.039,24.916 64.349,24.916 C62.683,24.916 61.849,23.594 61.849,20.956 C61.849,20.448 61.884,19.65 61.953,18.55 C62.027,17.456 62.061,16.652 62.061,16.145 C62.061,13.346 61.154,11.945 59.346,11.945 C57.536,11.945 56.636,13.346 56.636,16.145 C56.636,16.652 56.664,17.455 56.716,18.55 C56.773,19.65 56.801,20.448 56.801,20.955 C56.801,23.594 55.979,24.916 54.337,24.916 C53.646,24.916 53.082,24.671 52.637,24.186 C52.186,23.696 51.963,23.109 51.963,22.413 L51.963,10.657 C51.963,9.967 52.186,9.38 52.636,8.907 C53.082,8.428 53.652,8.189 54.342,8.189 C55.483,8.189 56.276,8.695 56.721,9.705 C57.491,8.485 58.855,7.875 60.806,7.875 C62.614,7.875 64.052,8.354 65.108,9.305 C66.186,10.326 66.722,11.728 66.722,13.512 L66.722,22.413 Z M81.686,21.907 C81.686,22.984 80.986,23.838 79.582,24.467 C78.47,24.973 77.261,25.233 76.039,25.229 C73.636,25.229 71.686,24.363 70.179,22.637 C68.736,20.989 68.011,18.954 68.011,16.538 C68.011,14.116 68.748,12.07 70.225,10.394 C71.702,8.714 73.636,7.875 76.039,7.875 C77.425,7.875 78.617,8.08 79.611,8.485 C80.996,9.033 81.686,9.887 81.686,11.05 C81.686,11.637 81.504,12.155 81.139,12.606 C80.774,13.05 80.305,13.278 79.736,13.278 C79.347,13.278 78.788,13.148 78.058,12.891 C77.328,12.628 76.747,12.503 76.318,12.503 C75.183,12.503 74.298,12.908 73.665,13.717 C73.078,14.447 72.781,15.381 72.781,16.538 C72.781,17.627 73.043,18.55 73.575,19.297 C74.161,20.169 74.989,20.602 76.045,20.602 C76.513,20.602 77.151,20.465 77.967,20.185 C78.783,19.912 79.371,19.77 79.736,19.77 C80.266,19.77 80.722,19.997 81.111,20.442 C81.493,20.892 81.686,21.376 81.686,21.907 Z M99.024,22.413 C99.024,23.109 98.802,23.696 98.357,24.186 C97.907,24.671 97.337,24.916 96.645,24.916 C95.607,24.916 94.865,24.409 94.42,23.4 C93.422,24.62 92.058,25.23 90.33,25.23 C88.117,25.23 86.303,24.3 84.898,22.454 C83.621,20.767 82.977,18.795 82.977,16.538 C82.977,14.282 83.621,12.31 84.898,10.617 C86.325,8.787 88.133,7.875 90.33,7.875 C92.058,7.875 93.422,8.485 94.42,9.705 C94.865,8.695 95.607,8.189 96.645,8.189 C97.319,8.189 97.884,8.434 98.34,8.919 C98.796,9.409 99.024,9.984 99.024,10.657 L99.024,22.413 Z M94.254,16.538 C94.254,15.444 93.993,14.52 93.468,13.774 C92.858,12.924 92.035,12.503 91.003,12.503 C89.948,12.503 89.127,12.925 88.538,13.773 C88.008,14.52 87.746,15.444 87.746,16.538 C87.746,17.627 88.002,18.561 88.509,19.331 C89.115,20.179 89.948,20.601 91.003,20.601 C92.058,20.601 92.88,20.179 93.468,19.331 C93.993,18.561 94.255,17.627 94.255,16.538 L94.254,16.538 Z M111.194,10.343 C111.194,11.363 110.697,12.063 109.704,12.445 C108.786,12.754 107.873,13.068 106.96,13.392 C105.961,13.962 105.465,15.022 105.465,16.562 L105.465,22.413 C105.465,23.109 105.236,23.696 104.793,24.186 C104.341,24.671 103.771,24.916 103.081,24.916 C102.385,24.916 101.814,24.671 101.37,24.186 C100.918,23.696 100.696,23.109 100.696,22.413 L100.696,10.657 C100.696,9.967 100.918,9.38 101.363,8.907 C101.813,8.428 102.385,8.189 103.075,8.189 C104.215,8.189 105.008,8.695 105.455,9.705 C106.475,8.485 107.571,7.875 108.752,7.875 C109.425,7.875 110.002,8.12 110.48,8.605 C110.953,9.095 111.194,9.676 111.194,10.343 Z M123.636,10.56 C123.636,11.62 123.22,12.286 122.394,12.572 C121.987,12.714 121.136,12.788 119.842,12.788 L119.842,22.413 C119.842,23.109 119.614,23.696 119.17,24.186 C118.718,24.671 118.148,24.916 117.458,24.916 C116.785,24.916 116.214,24.671 115.757,24.186 C115.301,23.696 115.073,23.109 115.073,22.413 L115.073,12.788 C114.091,12.788 113.379,12.663 112.928,12.418 C112.313,12.076 112.008,11.455 112.008,10.56 C112.008,9.665 112.322,9.055 112.955,8.73 C113.384,8.49 114.091,8.366 115.073,8.366 L115.073,6.326 C115.073,3.926 115.865,2.729 117.458,2.729 C119.043,2.729 119.842,3.926 119.842,6.325 L119.842,8.365 C121.136,8.365 121.987,8.44 122.394,8.582 C123.22,8.867 123.636,9.528 123.636,10.56 Z M161.953,7.666 C161.94,6.203 159.234,5.539 152.229,5.539 C135.794,5.539 131.624,4.837 127.162,0.147 C129.039,2.963 130.066,8.246 147.438,7.983 C165.563,7.704 154.506,12.652 151.288,18.242 C157.091,13.068 161.936,9.659 161.953,7.687 L161.953,7.666 Z M138.857,22.688 C138.857,24.048 137.737,25.166 136.375,25.166 C135,25.166 133.888,24.056 133.888,22.688 L133.888,22.686 C133.888,21.324 135.01,20.203 136.374,20.203 L136.375,20.203 C137.746,20.203 138.857,21.313 138.857,22.688 Z M150.176,22.688 C150.176,24.048 149.056,25.166 147.694,25.166 C146.32,25.166 145.208,24.056 145.208,22.688 L145.208,22.686 C145.208,21.324 146.329,20.203 147.693,20.203 L147.694,20.203 C149.064,20.203 150.176,21.313 150.176,22.688 Z" id="Shape"></path>
        </g>
    </g>
</svg>
